X:2990
T:Springdans
C:anon.
O:Norway
A:Bergen
R:Springdans
Z:Transcribed by Frank Nordberg - http://www.musicaviva.com
F:http://abc.musicaviva.com/tunes/norway/springdans02/springdans02-1.abc
M:3/4
L:1/8
K:D
A2|"D"d2 f>d A>F|"A7"G2 B>G E>G|"D"F2 A>F D>F|"A7"E>A (3A^GA A,2|
"D"d2 f>d A>F|"A7"G2 B>G E>G|"D"F2 A>F "A7"(3GEC|"D"D2D2:|
|:E2|"D"F2 D>F D>F|"A7"G2 E>G E>G|"D"F2 D>F D>F|"A7"E2 E>C A,2|
"D"F2 D>F D>F|"A7"G2 E>G E>G|"D"F2 A>F "A7"(3GEC|"D"D2D2:|
A2|"D"d2 f>d A>F|"A7"G2 B>G E>G|"D"F2 A>F D>F|"A7"E>A (3A^GA A,2|
"D"d2 f>d A>F|"A7"G2 B>G E>G|"D"F2 A>F "A7"(3GEC|"D"D2D2|]
W:
W:
W:  From Musica Viva - http://www.musicaviva.com
W:  the Internet center for free sheet music downloads.

